Adwaita++/status/22/media-playback-stopped.svg

<svg height="22" viewBox="0 0 22 22" width="22" xmlns="http://www.w3.org/2000/svg">
  <path d="m14.389.733c6.659 0 7.611.95 7.611 7.604v5.328c0 6.652-.952 7.602-7.611 7.602h-6.778c-6.66 0-7.611-.95-7.611-7.602v-5.328c0-6.654.951-7.604 7.611-7.604zm.007 2.058c.715 0 1.417.014 2.132.055.508.028 1.003.083 1.498.165.303.055.591.138.866.262.124.055.248.137.344.219.097.11.165.221.22.344.124.275.207.564.262.867.082.494.137.989.165 1.498.041.715.055 1.416.055 2.131v5.335.014c0 .702-.014 1.403-.055 2.118-.028.508-.083 1.004-.165 1.498-.055.303-.138.592-.262.867-.055.124-.123.234-.22.344-.096.082-.22.164-.344.219-.275.124-.563.207-.866.262-.495.082-.99.137-1.498.165-.715.041-1.417.055-2.132.055h-6.792c-.715 0-1.416-.014-2.131-.055-.509-.028-1.004-.083-1.499-.165-.303-.055-.591-.138-.867-.262-.123-.055-.247-.137-.343-.219-.096-.11-.165-.22-.22-.344-.124-.275-.206-.564-.262-.867-.082-.494-.137-.99-.165-1.498-.041-.715-.054-1.416-.054-2.118 0-.014 0-.014 0-.014v-5.335c0-.715.013-1.416.054-2.131.028-.509.083-1.004.165-1.498.056-.303.138-.592.262-.867.055-.123.124-.234.22-.344.096-.082.22-.164.343-.219.276-.124.564-.207.867-.262.495-.082.99-.137 1.499-.165.715-.041 1.416-.055 2.131-.055zm-1.581 2.709c3.568 0 4.078.509 4.078 4.073v2.854c0 3.564-.51 4.073-4.078 4.073h-3.63c-3.568 0-4.078-.509-4.078-4.073v-2.854c0-3.564.51-4.073 4.078-4.073z" fill="#5c616c" fill-rule="evenodd"/>
</svg>

<?xml version="1.0" standalone="no"?><!-- Generator: Gravit.io --><svg xmlns="http://www.w3.org/2000/svg" xmlns:xlink="http://www.w3.org/1999/xlink" style="isolation:isolate" viewBox="0 0 22 22" width="22" height="22"><path d=" M 14.389 0.733 C 21.048 0.733 22 1.683 22 8.337 L 22 13.665 C 22 20.317 21.048 21.267 14.389 21.267 L 7.611 21.267 C 0.951 21.267 0 20.317 0 13.665 L 0 8.337 C 0 1.683 0.951 0.733 7.611 0.733 L 14.389 0.733 Z  M 14.396 2.791 C 15.111 2.791 15.813 2.805 16.528 2.846 C 17.036 2.874 17.531 2.929 18.026 3.011 C 18.329 3.066 18.617 3.149 18.892 3.273 C 19.016 3.328 19.14 3.41 19.236 3.492 C 19.333 3.602 19.401 3.713 19.456 3.836 C 19.58 4.111 19.663 4.4 19.718 4.703 C 19.8 5.197 19.855 5.692 19.883 6.201 C 19.924 6.916 19.938 7.617 19.938 8.332 C 19.938 8.332 19.938 8.332 19.938 8.332 L 19.938 13.667 C 19.938 13.667 19.938 13.667 19.938 13.681 C 19.938 14.383 19.924 15.084 19.883 15.799 C 19.855 16.307 19.8 16.803 19.718 17.297 C 19.663 17.6 19.58 17.889 19.456 18.164 C 19.401 18.288 19.333 18.398 19.236 18.508 C 19.14 18.59 19.016 18.672 18.892 18.727 C 18.617 18.851 18.329 18.934 18.026 18.989 C 17.531 19.071 17.036 19.126 16.528 19.154 C 15.813 19.195 15.111 19.209 14.396 19.209 C 14.396 19.209 14.396 19.209 14.396 19.209 L 7.604 19.209 C 7.604 19.209 7.604 19.209 7.604 19.209 C 6.889 19.209 6.188 19.195 5.473 19.154 C 4.964 19.126 4.469 19.071 3.974 18.989 C 3.671 18.934 3.383 18.851 3.107 18.727 C 2.984 18.672 2.86 18.59 2.764 18.508 C 2.668 18.398 2.599 18.288 2.544 18.164 C 2.42 17.889 2.338 17.6 2.282 17.297 C 2.2 16.803 2.145 16.307 2.117 15.799 C 2.076 15.084 2.063 14.383 2.063 13.681 C 2.063 13.667 2.063 13.667 2.063 13.667 L 2.063 8.332 C 2.063 8.332 2.063 8.332 2.063 8.332 C 2.063 7.617 2.076 6.916 2.117 6.201 C 2.145 5.692 2.2 5.197 2.282 4.703 C 2.338 4.4 2.42 4.111 2.544 3.836 C 2.599 3.713 2.668 3.602 2.764 3.492 C 2.86 3.41 2.984 3.328 3.107 3.273 C 3.383 3.149 3.671 3.066 3.974 3.011 C 4.469 2.929 4.964 2.874 5.473 2.846 C 6.188 2.805 6.889 2.791 7.604 2.791 C 7.604 2.791 7.604 2.791 7.604 2.791 L 14.396 2.791 C 14.396 2.791 14.396 2.791 14.396 2.791 Z  M 12.815 5.5 C 16.383 5.5 16.893 6.009 16.893 9.573 L 16.893 12.427 C 16.893 15.991 16.383 16.5 12.815 16.5 L 9.185 16.5 C 5.617 16.5 5.107 15.991 5.107 12.427 L 5.107 9.573 C 5.107 6.009 5.617 5.5 9.185 5.5 L 12.815 5.5 Z " fill-rule="evenodd" fill="#5c616c"/></svg>
